!!!OTL: "Kos'liedchen" KINNE WINNE WINNCHEN
!!!ARE: Europa, Mitteleuropa, Deutschland, Niederrhein
!!!SCT: Z1376
!!!YEM: Copyright 1995, estate of Helmut Schaffrath.
**kern
*ICvox
*Ivox
*M2/4
*k[f#]
*G:
{16g
16f#
16g
16f#
8g
8d
=1
8g
16a
16b
4a}
=2
{8a
16b
16cc
4b
=3
8b
16cc
16dd
4ee}
=4
{8a
16b
16cc
4dd
=5
8g
16a
16b
4cc}
=6
{8dd
16ee
16ff#
16gg
16ff#
16gg
16ff#
=7
8gg
8g
4r}
==
!!!AGN: Kinder - Lied beim Anziehen
!!!ONB: ESAC (Essen Associative Code) Database: ZUCCAL
!!!AMT: simple duple
!!!AIN: vox
!!!EED: Helmut Schaffrath
!!!EEV: 1.0
*-
